X: 9
T: John Brennan's
Z: Sean Perry
S: https://thesession.org/tunes/404#setting50902
R: reel
M: 4/4
L: 1/8
K: Dmaj
|:D2FA d2ed|cdBd ADFA|BAGB ADFA|BAGF EGFE|
D2FA d2ed|cdBd ADFA|BAGB ABde|1 faeg fdd2:|2faeg fdde||
f2df e2de|fedB AF F/F/F|BAGB ADFA|BAGF Ecde|
f2df e2de|fedB AF F/F/F|BAGB ABde|faeg fdde|
f2df e2de|fedB AF F/F/F|BAGB ADFA|BAGF EGFE|
D2FA d2ed|cdBd ADFA|BAGB ABde|faeg fdd2||

